X:1
T:D Major Oliver Holden, 1803
T:William Cowper, 1779 86. 86. (C. M.)
T:Winter-Street No copyright. Transcribed from The Charlestown Collection, 1803.
%%score [ 1 2 3 4 ]
L:1/8
M:3/2
K:D
V:1 treble nm="Treble" snm="Tr."
V:2 treble nm="Counter" snm="C."
V:3 treble-8 nm="Tenor" snm="T."
V:4 bass nm="Bass" snm="B."
V:1
 F4 | (A4 d4) c4 | d8 F4 | A8 A4 | A8 A4 | A8 A4 | (d4 c4) B4 | c8 A4 | (A4 d4) c4 | (d4 A4) A4 | %10
w: 1.~The|saints * should|ne- ver|be dis-|mayed, Nor|sink in|hope- * less|fear; For|when * they|least * ex-|
w: 2.~This|Abra- * ham|found, he|raised the|knife, God|saw, and|said, * "For-|bear," Yon|ram * shall|yield * his|
 (d4 c4) d4 | c8 c4 | (d4 e4) f4 | (B4 A4) G4 | F8 |] %15
w: pect * His|aid, The|Sav- * ior|will * ap-|pear.|
w: mea- * ner|life, Be-|hold * the|vic- * tim|there.|
V:2
 D4 | F8 E4 | (D4 G4) F4 | E8 D4 | C8 D4 | (D4 E4) F4 | E8 E4 | E8 D4 | F8 E4 | D8 D4 | %10
w: 3.~Once|Da- vid|seemed * Saul's|cer- tain|prey, But|hark! * the|foe's at|hand; Saul|turns his|arms a-|
w: 4.~When|Jo- nah|sunk * be-|neath the|wave, He|thought * to|rise no|more; But|God pre-|pared a|
 (D4 E4) D4 | E8 E4 | (F4 E4) D4 | (E4 F4) E4 | D8 |] %15
w: no- * ther|way, To|save * th'in-|va- * ded|land.|
w: fish * to|save, And|bear * him|to * the|shore.|
V:3
 A4 | (d4 A4) G4 | (F3 A B4) A4 | G8 F4 | E8 (A2 B2) | (F4 E4) D4 | (B4 A4) ^G4 | A8 A4 | %8
w: 5.~Blest|proofs * of|power * * and|grace di-|vine, That *|meet * us|in * His|word! May|
w: 6.~Wait|for * His|sea- * * son-|a- ble|aid, And *|though * it|tar- * ry,|wait: The|
 (d4 A4) G4 | (F3 E D4) F4 | (A4 G4) F4 | E8 A4 | (d4 c4) B4 | (e4 d4) c4 | d8 |] %15
w: eve- * ry|deep- * * felt|care * of|mine Be|trus- * ted|with * the|Lord.|
w: pro- * mise|may * * be|long- * de-|layed, But|can- * not|come * too|late.|
V:4
 D,4 | D,8 E,4 | (F,4 G,4) D,4 | C,8 D,4 | A,,8 D,4 | (D,4 C,4) D,4 | E,8 E,4 | A,,8 D,4 | %8
 D,8 A,,4 | D,8 D,4 | (F,4 E,4) D,4 | A,,8 A,4 | (F,4 E,4) D,4 | (G,4 A,4) A,,4 | D,8 |] %15

